X: 873
T: Missa O sacrum convivium Hosanna Sanctus
C: Giovanni Perluigi da Palestrina
L: 1/4
M: 4/2
N: Derived from Sanctus_92_c.krn
Q: "Sanctus"
V: 1 clef=treble
V: 2 clef=treble
V: 3 clef=treble-8
V: 4 clef=treble-8
V: 5 clef=bass
K: F
[V:1] z8 | 
[V:2] z8 | 
[V:3] c8 | 
[V:4] z8 | 
[V:5] z4F,4- | 
[V:1] z8 | 
[V:2] z8 | 
[V:3] d4e4- | 
[V:4] z8 | 
[V:5] F,4G,4 | 
[V:1] z8 | 
[V:2] z8 | 
[V:3] e2c2f3e | 
[V:4] c8 | 
[V:5] A,4F,4 | 
[V:1] z4B4- | 
[V:2] F8 | 
[V:3] d2Bcdef2- | 
[V:4] d2>e2f2d2- | 
[V:5] B,8 | 
[V:1] B4c4 | 
[V:2] G4A4 | 
[V:3] feedf4 | 
[V:4] d2cBAGA2 | 
[V:5] G,4F,4 | 
[V:1] d4B2c2- | 
[V:2] F2G2>F2ED | 
[V:3] d4z4 | 
[V:4] B2G2d2cB | 
[V:5] z2B,2G,2A,2- | 
[V:1] cBAGABc2- | 
[V:2] E2F2>E2DC | 
[V:3] z4f4 | 
[V:4] A4F4 | 
[V:5] A,G,F,E,D,2A,2 | 
[V:1] c2=B2c2c2 | 
[V:2] D4F3G | 
[V:3] g4a4 | 
[V:4] z8 | 
[V:5] G,4F,3E, | 
[V:1] d4e2gf | 
[V:2] A2=B2c2c2- | 
[V:3] f2g2>f2ed | 
[V:4] z8 | 
[V:5] D,2G,2C,4 | 
[V:1] edcBA4- | 
[V:2] cB2<A2GFE | 
[V:3] e2f2>e2dc | 
[V:4] z4f4- | 
[V:5] z8 | 
[V:1] A2B2c4 | 
[V:2] DEF4E2 | 
[V:3] d4c4 | 
[V:4] f4g4 | 
[V:5] z8 | 
[V:1] c4z2A2 | 
[V:2] F2>G2A4 | 
[V:3] z2c4d2- | 
[V:4] a4f3e | 
[V:5] F,8 | 
[V:1] B4c3B | 
[V:2] G4C4 | 
[V:3] d2e4c2 | 
[V:4] d2gfede2 | 
[V:5] G,4A,4 | 
[V:1] A2B2G4 | 
[V:2] z8 | 
[V:3] dcBAB2c2- | 
[V:4] fedcd2e2- | 
[V:5] F,2G,2>F,2E,D, | 
[V:1] c3d/ e/f4- | 
[V:2] z4F4- | 
[V:3] cBAGABc2- | 
[V:4] edcBA4 | 
[V:5] E,2F,2>E,2D,C, | 
[V:1] f4e3d | 
[V:2] F4G4 | 
[V:3] c=B=BAc4 | 
[V:4] F4z4 | 
[V:5] D,4C,2C2- | 
[V:1] c4z4 | 
[V:2] A2cBAGFE | 
[V:3] FGABc2d2- | 
[V:4] z4f4- | 
[V:5] CB,A,G,A,2B,2- | 
[V:1] B8 | 
[V:2] D2F2>E2ED | 
[V:3] d2c2B4 | 
[V:4] f4g4 | 
[V:5] B,2A,2G,4 | 
[V:1] c4d4 | 
[V:2] F4D4- | 
[V:3] z2A2B4 | 
[V:4] a4f2g2- | 
[V:5] F,4z4 | 
[V:1] B2c2>B2AG | 
[V:2] D2C2z4 | 
[V:3] G2A4d2- | 
[V:4] gfede2f2- | 
[V:5] z8 | 
[V:1] A2B2>A2GF | 
[V:2] z8 | 
[V:3] dcBAGFf2- | 
[V:4] fedcd4 | 
[V:5] z8 | 
[V:1] G4F3G | 
[V:2] z2G2A2A2 | 
[V:3] f2e2f4 | 
[V:4] c4z2c2- | 
[V:5] z4F,4- | 
[V:1] A4G4 | 
[V:2] F4D2GF | 
[V:3] z4B4 | 
[V:4] c2d4e2- | 
[V:5] F,4G,4 | 
[V:1] z2c2A2B2- | 
[V:2] EDE2DCB,A, | 
[V:3] c4d4 | 
[V:4] e2c2fedc | 
[V:5] A,4F,2G,2- | 
[V:1] BAGFG2A2- | 
[V:2] G,4C4 | 
[V:3] B2c2>B2AG | 
[V:4] d2e4c2- | 
[V:5] G,F,E,D,E,2F,2- | 
[V:1] A2F2F4 | 
[V:2] F2>E2D2F2- | 
[V:3] A2B2>A2GF | 
[V:4] c2d4B2 | 
[V:5] F,E,D,C,D,4 | 
[V:1] c3B/ A/G4 | 
[V:2] F2EDE4 | 
[V:3] G8 | 
[V:4] c8 | 
[V:5] C,8 | 
[V:1] A8 |]  
[V:2] F8 |]  
[V:3] F8 |]  
[V:4] c8 |]  
[V:5] F,8 |]  

